X: 78
%
U:~=!turn!
T: Caillich Odhar
T: The Sallow Old Woman
C:
O:Scotland
B:Keith Norman MacDonald : "The Skye collection of the best reels & strathspeys extant" : 1887
Z:Ralph Palmer
R:Strathspey
M:C
L:1/8
K:B aeolian
d | A>D{/G}F>D A<DD>B | A>D{/G}F>D F/2G/2A {/c}d2 | A>D{/G}F>A D<AF<A | {/F}G<BA>F E/2E/2E TB2 ::
A<{/c}dd>f {gf}e>dc>A | A<{/c}dd>f ef/2g/2 Tf>e | [1 A>{/c}dd>f {gf}e>d{/d}c>A |
B<dA<d E/2E/2E B2 :| [2 f<ae>f {/c}d>fB>d | A>cF>d E/2E/2E B2 |]


